X: 2947
T: Barrington
R: hornpipe
M: 4/4
K: Gmajor
|:Bc|d>bg>d B>gd>B|G>ec>A F>dB>G|D>EF>G ABcd|ed^cd A2 B=c|
d>bg>d B>gd>B|G>ec>A F>dB>G|.D.E.F.G A>ed>F|G2 B2 G2:|
|:Bc|d^cdB G>Bd>g|e^dec A>ce>g|dbca BgAG|F>ed>^c d2 B=c|
d/e/d/^c/dB G>Bd>g|e^dec Aceg|dgfe (3ded (3cBA|(3GBd (3gdB G2:|

